X:1
T:Title
%%score [ 1 2 3 4 ]
L:1/8
Q:1/4=145
M:4/4
K:C
V:1 treble-8 nm="Midi_1"
V:2 treble-8 nm="Midi_1"
V:3 bass nm="Midi_1"
V:4 bass nm="Midi_1"
V:1
"^Die Liebe Gottes" c4 | c6 d2 | e4 e4 | f6 f2 | e4 d2 ^c2 | %5
w: Al-|so hat|Gott die|Welt ge-|liebt, daß er|
 d6"^Wilhelm Greef, 1851 (1809 -1875)""^Text: Ev. d. Joh. 3, 16" d2 | d4 d4 | ^c4 d4 | %8
w: sei- nen|ein- ge-|bor- nen|
[M:4/4][K:treble-8] (e4 d2 ^c2) | d4 A2 _B2 | c6 c2 | c2!<(! c2 (c2 d2)!<)! | e6 e2 | e4 c4 | %14
w: Sohn * *|gab, auf daß|al- le,|die an ihn *|glau- ben,|nicht ver-|
[M:4/4][K:treble-8] (B4 c2) d2 | c4 B4 | c4"^cresc." d2 e2 | f4 d2 d2 | e4 e4 | d8 | !fermata!c4 |] %21
w: lo * ren|wer- den,|son- dern das|e- wi- ge|Le- ben|ha-|ben.|
V:2
 G4 | A6 A2 | B4 c4 | (d4 c2) B2 | c4 B2 G2 | (A2 B2 c2) A2 | _B4 A4 | A4 A4 | %8
w: Al-|so hat|Gott die|Welt * ge-|liebt, daß er|sei * * nen|ein- ge-|bor- nen|
[M:4/4][K:treble-8] (_B4 A4) | A4 z4 | G2 A2 _B2 G2 | A2!<(! A2 A4 | (B4!<)! c2) d2 | c4 A4 | %14
w: Sohn *|gab,|auf daß al- le,|die an ihn|glau * ben,|nicht ver-|
[M:4/4][K:treble-8] A6 A2 | A4 ^G4 | A4 B2 c2 | (c2 BA) B2 B2 | c4 c4 | (c4 B2 A2) | !fermata!G4 |] %21
w: lo- ren|wer- den,|son- dern das|e * * wi- ge|Le- ben|ha * *|ben.|
V:3
 E,4 | F,6 A,2 | ^G,4 A,4 | A,6 G,2 | G,4 z4 | ^F,2 G,2 A,2 F,2 | G,4 A,4 | G,4 F,4 | %8
w: Al-|so hat|Gott die|Welt ge-|liebt,|daß er sei- nen|ein- ge-|bor- nen|
[M:4/4] (G,4 F,2 E,2) | F,4 F,2 F,2 | (E,2 F,2 G,2) E,2 | F,2!<(! F,2 (F,2 A,2)!<)! | %12
w: Sohn * *|gab, auf daß|al * * le,|die an ihn *|
 (^G,4 A,2) G,2 | A,4 E,4 |[M:4/4] F,6 F,2 | E,4 E,4 | A,4 G,2 G,2 | F,4 G,2 G,2 | G,4 A,4 | %19
w: glau * ben,|nicht ver-|lo- ren|wer- den,|son- dern das|e- wi- ge|Le- ben|
 (A,4 G,2 F,2) | !fermata!E,4 |] %21
w: ha * *|ben.|
V:4
 C,4 | F,6 F,2 | E,4 A,,4 | D,6 D,2 | C,4 G,2 E,2 | D,6 D,2 | G,4 F,4 | E,4 D,4 | %8
w: Al-|so hat|Gott die|Welt ge-|liebt, daß er|sei- nen|ein- ge-|bor- nen|
[M:4/4] (G,,4 A,,4) | D,4 D,2 D,2 | C,6 C,2 | F,2!<(! F,2 F,4 | (E,2!<)! D,2 C,2) B,,2 | %13
w: Sohn *|gab, auf daß|al- le,|die an ihn|glau * * ben,|
 A,,4 A,,4 |[M:4/4] (D,4 C,2) B,,2 | E,4 [E,,E,]4 | z4 z2 C,2 | %17
w: nicht ver-|lo * ren|wer- den,|das|
"^© 2010 by CPDL. This edition can be fully distributed, duplicated, performed, and recorded. Edited by Juliane Claudi" D,4 G,2 G,,2 | %18
w: e- wi- ge|
 C,4 A,,4 | (F,,4 G,,4) | !fermata!C,4 |] %21
w: Le- ben|ha *|ben.|

